img/email.svg

<svg width="18" height="15" viewBox="0 0 18 15" fill="none" xmlns="http://www.w3.org/2000/svg">
<path d="M15.9666 0.333252H2.36663C1.43163 0.333252 0.675126 1.12075 0.675126 2.08325L0.666626 12.5833C0.666626 13.5458 1.43163 14.3333 2.36663 14.3333H15.9666C16.9016 14.3333 17.6666 13.5458 17.6666 12.5833V2.08325C17.6666 1.12075 16.9016 0.333252 15.9666 0.333252ZM15.6266 4.052L9.61713 7.9195C9.34513 8.0945 8.98813 8.0945 8.71613 7.9195L2.70663 4.052C2.62139 4.00275 2.54676 3.93621 2.48723 3.8564C2.42771 3.77659 2.38453 3.68518 2.36032 3.5877C2.3361 3.49022 2.33135 3.3887 2.34636 3.28927C2.36136 3.18985 2.39581 3.09459 2.44762 3.00927C2.49942 2.92394 2.5675 2.85033 2.64774 2.79287C2.72798 2.73542 2.81872 2.69532 2.91445 2.67501C3.01018 2.6547 3.10892 2.6546 3.20469 2.67471C3.30046 2.69482 3.39127 2.73472 3.47163 2.792L9.16663 6.45825L14.8616 2.792C14.942 2.73472 15.0328 2.69482 15.1286 2.67471C15.2243 2.6546 15.3231 2.6547 15.4188 2.67501C15.5145 2.69532 15.6053 2.73542 15.6855 2.79287C15.7658 2.85033 15.8338 2.92394 15.8856 3.00927C15.9374 3.09459 15.9719 3.18985 15.9869 3.28927C16.0019 3.3887 15.9972 3.49022 15.9729 3.5877C15.9487 3.68518 15.9055 3.77659 15.846 3.8564C15.7865 3.93621 15.7119 4.00275 15.6266 4.052V4.052Z" fill="#BDBDBD"/>
</svg>

<svg width="18" height="15" fill="none" xmlns="http://www.w3.org/2000/svg"><path d="M15.967.333h-13.6c-.935 0-1.692.788-1.692 1.75l-.008 10.5c0 .963.765 1.75 1.7 1.75h13.6c.935 0 1.7-.787 1.7-1.75v-10.5c0-.962-.765-1.75-1.7-1.75zm-.34 3.719L9.617 7.92a.839.839 0 0 1-.9 0l-6.01-3.868a.729.729 0 0 1-.347-.464.765.765 0 0 1 .088-.579.735.735 0 0 1 .466-.334.702.702 0 0 1 .558.117l5.695 3.666 5.695-3.666a.712.712 0 0 1 .557-.117.712.712 0 0 1 .467.334.757.757 0 0 1-.26 1.043z" fill="#BDBDBD"/></svg>
